X: 031126
T: Cobbler [The]
S: "Johnny O'Leary of Sliabh Luachra" (#80)
Z: B.Black
L: 1/8
M: 2/4
Q: 280
R: polka
K: Bdor
f2e|: (3d/e/d/B bB|de f/g/f/e/|dB bB|c/B/A/B/ ef/e/|
d2 bB|de f/g/f/e/|de f/e/d/A/|1 B2 B>c :|2 B2 B2||
(3f/g/f/e/f/ ba|fe f>e|dB bB|c/B/A/B/ (3e/f/e/d/e/|
f>a ba|fe f/g/f/e/|de f/e/d/A/|B2 B2 :|
